X:267
T: Von den zehn Geboten
N: A0621B
O: Europa, Mitteleuropa, Deutschland
N: Muenchner Gsgb 1586
R: Romanze, Ballade, Lied, religioeses Lied
M: 4/1
L: 1/2
K: F
 |  | c2c2d2c2 | A2d2c2z
A | G2A2Bcd2 | c4G2B2 | A2GGF2z
F | G2GGcdcB | A2G2F2G2 | ECD2C2z
C | F2AGFGAB | c2ddc2z
A | BAG2AAG2 | F8

@@@ Tune index: 580
